X: 204
T:Favourite [] Hornpipe. JC.208
M:C
L:1/8
Q:160
S:John Clare,Poet,Helpstone (1793-1864)
R:Hornpipe
O:England179
A:Northamptonshire
N:MR.. This tune is written in the ms in pencil underneath the tune "O
N:The Days When I Was Young",No.209.
N:No TS given: 2/4 added.
Z:vmp.P. Headford
K:D
fg|afafd2fd|ececA2GF|GABc defg|ecAcd2fg|!
afafd2fd|ececA2GF|Ggbg fdec|d2d2d2:|!
|:de|fdedB2ga|b2e2e2cd|ecdcA2fg|a2d2d3c|!
BccB AFAF|BcdB BFAF|Ggbg fdec|d2d2d2:|]
